X:1
T:Dichterliebe, Op.48
T:Im wunderschönen Monat Mai
T: Robert Schumann
T:Heinrich Heine
T:Dichterliebe, Op.48
T:1. Im wunderschönen Monat Mai
T:OpenScore (CC0)
T:OpenScore (CC0)
T:OpenScore (CC0)
C:Robert Schumann
Z:Heinrich Heine
Z:OpenScore (CC0)
%%score 1 { ( 2 4 7 ) | ( 3 5 6 ) }
L:1/8
Q:1/4=35
M:2/4
K:A
V:1 treble nm="Voice"
V:2 treble nm="Piano"
V:4 treble 
V:7 treble 
V:3 bass 
V:5 bass 
V:6 bass 
V:1
"^Langsam, zart" z/ | z4 | z4 | z4 | z2 z z/!p! c/ | c>B B/d/F/G/ | A2 z z/ c/ | c>B (B/d/F/)G/ | %8
w: ||||Im|wun- der- schö- nen Mo- nat|Mai, als|al- le Knos- * * pen|
 AA z z/ A/ | B>B!<(! c>c!<)! | ed z z/ d/ | d>!<(!d e>e!<)! | =gf z2 | z4 | z4 | z2 z z/!p! c/ | %16
w: spran- gen, da|ist in mei- nem|Her- zen die|Lie- be auf- ge-|gan- gen.|||Im|
 c>B B/d/F/G/ | A2 z z/ c/ | c>B (B/d/F/)G/ | AA z z/ A/ | B>B!<(! c>c!<)! | ed z z/ d/ | %22
w: wun- der- schö- nen Mo- nat|Mai, als|al- le Vö- * * gel|san- gen da|hab' ich ihr ge-|stan- den mein|
!<(! d>d e>e!<)! | =gf z2 | z4 | z4 | !fermata!z4 |] %27
w: Seh- nen~ und Ver-|lan- gen.||||
V:2
!p! (c/- | c2- c/B/g/f/ | ^e2) z/ (B/d/>c/-) | c2- (c/B/g/f/ | ^e2) z/ (B/d/c/-) | c2 (B/d/F/G/ | %6
 A2-) A/(A/d/c/-) | c2 (B/d/F/G/ | A2-) A/(A/d/c/) | z z/ B/-!<(! B z/!<)! c/- | c z ^A/B/=g/f/ | %11
 z z/!<(! d/- d!<)! z/ e/- | e z!>(! A/d/^g/f/ | ^e2 z/ (B/d/c/-) | c2- (c/B/g/f/ | %15
 ^e2)!>)! z/ (B/d/c/-) | c2 (B/d/F/G/ | A2-) A/(A/d/c/-) | c2 (B/d/F/G/ | A2-) A/(A/d/c/) | %20
 x z/ B/-!<(! B z/!<)! c/- | c z ^A/B/=g/f/ | z z/!<(! d/- d!<)! z/ e/- | e z A/d/^g/f/ | %24
 ^e2!>(! z/ (B/d/c/- | c2- c/B/g/f/ | !fermata!^e4)!>)! |] %27
V:3
!ped! z/!ped-up! |!ped! D,/^A,/B,/D/- D2!ped-up! |!ped! C,2 [C,C]2!ped-up! | %3
!ped! D,2 [D,D]2!ped-up! |!ped! C,2 C2!ped-up! | %5
!ped! (D,/B,/D/[I:staff -1]F/)[I:staff +1] z/ B,,/E,/-E,,/!ped-up! | %6
!ped! E,/E,/A,/-[I:staff -1]C/[I:staff +1] A, z/ A,/!ped-up! | %7
!ped! (D,/B,/D/[I:staff -1]F/)[I:staff +1] z/ (B,,/E,/-E,,/)!ped-up! | %8
!ped! E,/E,/A,/-[I:staff -1]C/[I:staff +1] A,>G,!ped-up! | %9
!ped! (=G,/B,/E/[I:staff -1]B/)!ped-up!!ped![I:staff +1] (F,/^A,/E/[I:staff -1]c/)!ped-up! | %10
!ped![I:staff +1] B,3 z!ped-up! | %11
!ped! _B,/D/=G/[I:staff -1]d/!ped-up!!ped![I:staff +1] A,/C/G/[I:staff -1]e/!ped-up! | %12
!ped![I:staff +1] D,/A,/D/[I:staff -1]F/[I:staff +1] z z/ B,,/!ped-up! |!ped! C,3 z/ C,/!ped-up! | %14
!ped! D,3 z/ B,,/!ped-up! |!ped! C,2 C,2!ped-up! | %16
!ped! (D,/B,/D/[I:staff -1]F/)[I:staff +1] z/ B,,/E,/-E,,/!ped-up! | %17
!ped! E,/E,/A,/-[I:staff -1]C/[I:staff +1] A,!ped!!ped-up! z/ A,/!ped-up! | %18
!ped! (D,/B,/D/[I:staff -1]F/)!ped-up!!ped![I:staff +1] z/ (B,,/E,/-E,,/)!ped-up! | %19
!ped! E,/E,/A,/-[I:staff -1]C/[I:staff +1] A,>G,!ped-up! | %20
!ped! (=G,/B,/E/[I:staff -1]B/)!ped-up!!ped![I:staff +1] (F,/^A,/E/[I:staff -1]c/)!ped-up! | %21
!ped![I:staff +1] B,3 z!ped-up! | %22
!ped! _B,/D/=G/[I:staff -1]d/!ped-up!!ped![I:staff +1] A,/C/G/[I:staff -1]e/!ped-up! | %23
!ped![I:staff +1] D,/A,/D/[I:staff -1]F/[I:staff +1] z z/ B,,/!ped-up! | %24
!ped! C,3!ped-up!!ped! z/ C,/ | D,3 z/ B,,/!ped-up! |!ped! C,4!ped-up! |] %27
V:4
 x/ | x2 F2 |[I:staff +1] (C,/-B,/C/[I:staff -1]^E/ G2) | %3
[I:staff +1] (D,/-^A,/B,/D/-[I:staff -1] F2) |[I:staff +1] (C,/-B,/C/-[I:staff -1]^E/ G2) | %5
 x3 F/D/- | D>C E2 | x3 F/D/- | D>C E2 | x4 |[I:staff +1] B,/D/^E/[I:staff -1]F/ x2 | x4 | x4 | %13
[I:staff +1] (C,/B,/C/[I:staff -1]^E/ G2) |[I:staff +1] (D,/^A,/B,/-D/-[I:staff -1] F2) | %15
[I:staff +1] (C,/-B,/C/-[I:staff -1]^E/ G2) | x3 F/D/- | D>C E2 | x3 F/D/- | D>C E2 | x4 | %21
[I:staff +1] B,/D/^E/[I:staff -1]F/ x2 | x4 | x4 |[I:staff +1] (C,/B,/C/[I:staff -1]^E/ G2) | %25
[I:staff +1] (D,/^A,/B,/-D/-[I:staff -1] F2) | %26
[I:staff +1](!fermata!x/G,/C/-[I:staff -1]^E/- !fermata!B2) |] %27
V:5
 x/ | D,2- D,2 | x C x2 | x4 | x C x2 | D,2 x E, | A,,2 A, x | D,2 x E, | A,,A, x2 | =G,2 F,2 | %10
 x4 | _B,2 A,2 | D,2 x2 | x4 | x4 | x4 | D,2 x E, | A,,2 A, x | D,2 x E, | A,,A, x2 | =G,2 F,2 | %21
 x4 | _B,2 A,2 | D,2 x2 | x4 | x4 | x C !fermata!C2 |] %27
V:6
 x/ | x4 | x4 | x4 | C,2 C,2 | x4 | x A, x2 | x4 | x4 | x4 | x4 | x4 | x4 | x4 | x B, [B,D] x | %15
 x C C2 | x4 | x A, x2 | x4 | x4 | x4 | x4 | x4 | x4 | x4 | x B, [B,D] x | x4 |] %27
V:7
 x/ | x4 | x4 | x4 | x4 | x4 | x4 | x4 | x4 | x4 | x4 | x4 | x4 | x4 | x4 | x4 | x4 | x4 | x4 | %19
 x4 | x4 | x4 | x4 | x4 | x4 | x4 | x2 E2 |] %27

